X:144090
T:Rowan Tree
H: 
B: Scots Guards II
C:
O:Kevin Fraser
Z:Kevin Fraser
Q:1/4=90
K:HP
M:4/4
L:1/8
R:March
U: R = ///
U: r = //
U: V = !accent!
V:M gstem=up stem=down name="Melody" sname="Melody"
V:H gstem=up stem=down name="Harmony" sname="Harmony"
V:C gstem=up stem=down name="C-Harmony"
V:S gstem=up stem=down dyn=up stafflines=1 clef=perc middle=G name="Snare" sname="Snare"" sname="Snare"
V:B gstem=up stem=down clef=none dyn=up name="Bass"
V:T gstem=up stem=down clef=none dyn=up name="Tenor"
V:BB gstem=up stem=down name="Brass Bass" sname="ABCD-C" transpose=-1  octave=-1 clef=bass
V:BC gstem=up stem=down name="Brass Chord" sname="ABCD-D" transpose=-1
V:BD gstem=up stem=down name="Brass Chord 2" sname="ABCD-B" transpose=-1
V:P gstem=up stem=down name="Piano" octave=-1
I:MIDI=program 110
V:M gstem=up stem=down name="Melody"
%%MIDI program 109 #bagpipes
%%MIDI vol 100
% %score {M}
%%landscape
%%barsperstaff 4
%%scale 0.8
T: Rowan Tree
[V:M][|  {g}AB|         {g}c3{GdG}c {gcd}c2{e}B2 | {g}ce3 {A}e2 {ag}a2  | {fg}f3e {gfg}f2a2   | {fg}f3e {A}e2 {g}AB | !
w: hen o | ho dro hoto uo | ho e ende dili | vere e chete I | vere e ende hen o |
[V:M]|         {g}c3{GdG}c {gcd}c2{e}B2 | {g}ce3 {gfg}f3e      | {gef}ec3 {gBd}B3c   | {g}A4 {GAG}A2      
w: | ho dro hoto uo | ho e hete e | hete o hoto o| hen rarin|
[V:M]{g}e2|         {A}e2 a2 {g}a3g          | {f}g2 f2 {gfg}f2 a2  | {ef}e3f {gfg}fe {gde}dc |{gcd}c2-cd/2c/2 {gBd}B2{g}AB | !
w: che | ende I lI di | vedi ve chete I | ete ve chete e hada o | hoto o a o hoto hen o
[V:M]|         {g}c3{GdG}c {gcd}c2{e}B2 | {g}ce3 {gfg}f3e      | {gef}ec3 {gBd}B3c   | {g}A4 {GAG}A2       |] !
w: | ho dro hoto uo | ho e chete e | hete o hoto o| hen rarin|
[V:H][|AB | A2-A{GAG}A {gAd}A2{e}G2 | {g}Ac-c2 {A}c2 {f}f2 | {Gdc}d2-dc {Gdc}d2 f2 | {Gdc}d2-dc {gcd}c2 {g}AB | $ !
[V:H]| A2-A{GAG}A {gAd}A2{e}G2 | {g}c{e}A{d}Bc {Gdc}d2-dc | {gcd}c{e}A-A2 {Gdc}d2-de | {gcd}c4 {GdG}c2   
[V:H] {g}c{e}c| {A}c2-cf {g}f2-fe | {g}e2 d2 {gdc}d2 f2 | {cd}c2-cd {gcd}dc {gBd}BA | {GAG}A2-AB/A/ {gGd}G2 {g}AB | !
[V:H]| A2-A{GAG}A {gAd}A2{e}G2 | {g}c{e}A{d}Bc {Gdc}d2-dc | {gcd}c{e}A-A2 {Gdc}d2-de | {gcd}c4 {GdG}c2 |] !
W: Massed Bands play this with Scotland the Brave.
W: In years past the ASPD also played this with Auld Hoose and Flett from Flotta



